X:1
T:Title
%%score { ( 1 3 ) | ( 2 4 ) }
L:1/8
M:3/4
K:C
V:1 treble nm="Grand Piano"
V:3 treble 
V:2 bass 
V:4 bass 
V:1
 z2 z2[Q:1/4=110] G2 | [Ge]2 [Fd]2 [Ec]2 | [Ac]2 [GB]2 A2 | A2 G2 F2 | E4 E2 | E2 ^F2 ^G2 | %6
 A2 B2 c2 | [^Fd]2 [FA]2 [Fc]2 | B4 G2 | G2 A2 B2 | c2 [Fd]2 [Ge]2 | c2 d2 e2 | %12
[M:4/4] f6 [Ad][Ad] |[M:3/4] e2 .c2 d2 |[M:2/4] [Ec]4 |[M:1/4] dd |[M:3/4] e2 d2 dd | e2 d2 dd | %18
 e2 d2 c2 | B6 | [Ec]4 [EG]2 | [FA]2 [EG]2 cc | %22
 c2 c2 [Ad]2[Q:1/4=108][Q:1/4=107][Q:1/4=105][Q:1/4=103][Q:1/4=101][Q:1/4=100][Q:1/4=98][Q:1/4=96][Q:1/4=95][Q:1/4=93][Q:1/4=91][Q:1/4=89][Q:1/4=88][Q:1/4=86][Q:1/4=84] | %23
 e2 c2 d2 | [Ec]6 |] %25
V:2
 z2 z2 G,2 | [C,C]2 [D,B,]2 [E,C]2 | [F,C]2 [F,C]2 [F,CF]2 | [F,CF]2 [G,CE]2 [^G,B,D]2 | %4
 [A,C]4 [A,C]2 | [^G,B,]2 [E,DE]2 [E,DE]2 | [A,CE]2 [^G,B,E]2 [A,E]2 | [D,A,]2 [D,A,]2 [D,D]2 | %8
 [G,DG]4 [G,B,]2 | [G,CE]2 [^F,C_E]2 [=F,D]2 | [E,CE]2 [D,B,]2 [C,C]2 | [CE]2 [B,CF]2 [_B,CG]2 | %12
[M:4/4] [A,CA]6[K:bass] [^F,C][F,C] |[M:3/4][K:treble] [G,CG]2 .[G,E]2 [G,B,F]2 | %14
[M:2/4][K:bass] [C,C]4 |[M:1/4][K:treble] [G,B,G][G,B,G] |[M:3/4] [CG]2 [G,B,G]2 [G,B,G][G,B,G] | %17
 [CG]2 [G,B,G]2 [G,B,G][G,B,G] | [CG]2 [B,DG]2 [A,D^F]2 | G4 z2 | [C,C]4 [E,C]2 | %21
 [F,C]2 [C,C]2 [A,CE][A,CE] | [A,CE]2 [A,CE]2 [^F,C]2 | [G,CG]2 [G,CE]2[K:bass] [G,,G,B,F]2 | %24
 [C,C]6 |] %25
V:3
 x6 | x6 | x6 | x6 | x6 | x6 | x6 | x6 | x6 | x6 | x6 | x6 |[M:4/4] x8 |[M:3/4] x6 |[M:2/4] x4 | %15
[M:1/4] x2 |[M:3/4] x6 | x6 | x6 | z2 z2 F2 | x6 | x6 | x6 | x6 | x6 |] %25
V:4
 x6 | x6 | x6 | x6 | x6 | x6 | x6 | x6 | x6 | x6 | x6 | x6 |[M:4/4] x6[K:bass] x2 | %13
[M:3/4][K:treble] x6 |[M:2/4][K:bass] x4 |[M:1/4][K:treble] x2 |[M:3/4] x6 | x6 | x6 | [G,D]6 | %20
 x6 | x6 | x6 | x4[K:bass] x2 | x6 |] %25

